usr/share/icons/elementary-xfce/actions/16/help-hint.svg

<?xml version="1.0" encoding="UTF-8" standalone="no"?>
<!-- Created with Inkscape (http://www.inkscape.org/) -->

<svg
   xmlns:dc="http://purl.org/dc/elements/1.1/"
   xmlns:cc="http://creativecommons.org/ns#"
   xmlns:rdf="http://www.w3.org/1999/02/22-rdf-syntax-ns#"
   xmlns:svg="http://www.w3.org/2000/svg"
   xmlns="http://www.w3.org/2000/svg"
   xmlns:xlink="http://www.w3.org/1999/xlink"
   xmlns:sodipodi="http://sodipodi.sourceforge.net/DTD/sodipodi-0.dtd"
   xmlns:inkscape="http://www.inkscape.org/namespaces/inkscape"
   width="16px"
   height="16px"
   id="svg3935"
   version="1.1"
   inkscape:version="0.48.2 r9819"
   sodipodi:docname="help-hint.svg">
  <defs
     id="defs3937">
    <linearGradient
       id="linearGradient3707-319-631-407-324-3-8">
      <stop
         id="stop3760-7-3"
         style="stop-color:#185f9a;stop-opacity:1;"
         offset="0" />
      <stop
         id="stop3762-8-4"
         style="stop-color:#599ec9;stop-opacity:1;"
         offset="1" />
    </linearGradient>
    <linearGradient
       inkscape:collect="always"
       xlink:href="#linearGradient4011"
       id="linearGradient3071"
       gradientUnits="userSpaceOnUse"
       gradientTransform="matrix(0.35135136,0,0,0.35135136,-17.203671,-0.90930013)"
       x1="71.204407"
       y1="6.2375584"
       x2="71.204407"
       y2="44.340794" />
    <linearGradient
       id="linearGradient4011">
      <stop
         id="stop4013"
         style="stop-color:#ffffff;stop-opacity:1;"
         offset="0" />
      <stop
         offset="0.507761"
         style="stop-color:#ffffff;stop-opacity:0.23529412;"
         id="stop4015" />
      <stop
         id="stop4017"
         style="stop-color:#ffffff;stop-opacity:0.15686275;"
         offset="0.83456558" />
      <stop
         id="stop4019"
         style="stop-color:#ffffff;stop-opacity:0.39215687;"
         offset="1" />
    </linearGradient>
    <linearGradient
       id="linearGradient2867-449-88-871-390-598-476-591-434-148-57-177-3-8">
      <stop
         id="stop3750-8-9"
         style="stop-color:#90dbec;stop-opacity:1;"
         offset="0" />
      <stop
         id="stop3752-3-2"
         style="stop-color:#55c1ec;stop-opacity:1;"
         offset="0.26238" />
      <stop
         id="stop3754-7-2"
         style="stop-color:#3689e6;stop-opacity:1;"
         offset="0.704952" />
      <stop
         id="stop3756-9-3"
         style="stop-color:#2b63a0;stop-opacity:1;"
         offset="1" />
    </linearGradient>
    <radialGradient
       r="19.99999"
       fy="8.4497671"
       fx="5.7800279"
       cy="8.4497671"
       cx="5.7800279"
       gradientTransform="matrix(0,0.89892574,-0.95095622,-1.6561642e-8,16.035401,-6.0146846)"
       gradientUnits="userSpaceOnUse"
       id="radialGradient3931"
       xlink:href="#linearGradient2867-449-88-871-390-598-476-591-434-148-57-177-3-8"
       inkscape:collect="always" />
    <linearGradient
       y2="3.8990016"
       x2="24"
       y1="44"
       x1="24"
       gradientTransform="matrix(0.38465107,0,0,0.38465106,-1.231625,-1.2316257)"
       gradientUnits="userSpaceOnUse"
       id="linearGradient3933"
       xlink:href="#linearGradient3707-319-631-407-324-3-8"
       inkscape:collect="always" />
    <linearGradient
       inkscape:collect="always"
       xlink:href="#linearGradient3707-319-631-407-324-3-8-4"
       id="linearGradient3892-7"
       x1="7.4296298"
       y1="13.162963"
       x2="7.4296298"
       y2="0.12066602"
       gradientUnits="userSpaceOnUse" />
    <linearGradient
       id="linearGradient3707-319-631-407-324-3-8-4">
      <stop
         id="stop3760-7-3-5"
         style="stop-color:#185f9a;stop-opacity:1;"
         offset="0" />
      <stop
         id="stop3762-8-4-2"
         style="stop-color:#599ec9;stop-opacity:1;"
         offset="1" />
    </linearGradient>
  </defs>
  <sodipodi:namedview
     id="base"
     pagecolor="#ffffff"
     bordercolor="#666666"
     borderopacity="1.0"
     inkscape:pageopacity="0.0"
     inkscape:pageshadow="2"
     inkscape:zoom="11.098901"
     inkscape:cx="8"
     inkscape:cy="8"
     inkscape:current-layer="layer1"
     showgrid="true"
     inkscape:grid-bbox="true"
     inkscape:document-units="px"
     inkscape:window-width="1280"
     inkscape:window-height="753"
     inkscape:window-x="0"
     inkscape:window-y="24"
     inkscape:window-maximized="1" />
  <metadata
     id="metadata3940">
    <rdf:RDF>
      <cc:Work
         rdf:about="">
        <dc:format>image/svg+xml</dc:format>
        <dc:type
           rdf:resource="http://purl.org/dc/dcmitype/StillImage" />
        <dc:title></dc:title>
      </cc:Work>
    </rdf:RDF>
  </metadata>
  <g
     id="layer1"
     inkscape:label="Layer 1"
     inkscape:groupmode="layer">
    <path
       inkscape:connector-curvature="0"
       style="color:#000000;fill:url(#radialGradient3931);fill-opacity:1;fill-rule:nonzero;stroke:url(#linearGradient3933);stroke-width:0.99999994000000003;stroke-linecap:round;stroke-linejoin:round;stroke-miterlimit:4;stroke-opacity:1;stroke-dasharray:none;stroke-dashoffset:0;marker:none;visibility:visible;display:inline;overflow:visible;enable-background:accumulate"
       id="path2555-7"
       d="m 8.000001,0.49999997 c -4.138241,0 -7.50000103,3.36175853 -7.50000103,7.49999993 C 0.49999997,12.138242 3.86176,15.500001 8.000001,15.5 12.13824,15.5 15.500004,12.138242 15.5,7.9999999 15.5,3.8617585 12.13824,0.49999997 8.000001,0.49999997 z" />
    <path
       inkscape:connector-curvature="0"
       style="opacity:0.5;color:#000000;fill:none;stroke:url(#linearGradient3071);stroke-width:0.99999994;stroke-linecap:round;stroke-linejoin:round;stroke-miterlimit:4;stroke-opacity:1;stroke-dasharray:none;stroke-dashoffset:0;marker:none;visibility:visible;display:inline;overflow:visible;enable-background:accumulate"
       id="path8655-6"
       d="M 14.5,7.999769 C 14.5,11.589737 11.589636,14.5 8.0000824,14.5 4.4101993,14.5 1.5,11.589703 1.5,7.999769 1.5,4.4099697 4.4101993,1.5000003 8.0000824,1.5000003 11.589636,1.5000003 14.5,4.4099697 14.5,7.999769 l 0,0 z" />
    <path
       inkscape:connector-curvature="0"
       style="font-size:62.45826339999999988px;font-style:normal;font-variant:normal;font-weight:normal;font-stretch:normal;text-align:start;line-height:125%;writing-mode:lr-tb;text-anchor:start;fill:url(#linearGradient3892-7);fill-opacity:1;stroke:none;font-family:Georgia;color:#000000;fill-rule:nonzero;marker:none;visibility:visible;display:inline;overflow:visible;enable-background:accumulate"
       id="text2315-4"
       d="m 7.0863923,2.7004791 c 0.2165,2.114806 0.464489,4.215057 0.648787,6.3381467 0.185367,0 0.402782,0 0.588149,0 0.152869,-2.0388397 0.399439,-4.0653587 0.577306,-6.1016707 0.090667,-0.48217 -0.156894,-1.054656 -0.666053,-1.171802 -0.503128,-0.147099 -1.065245,0.217165 -1.132146,0.737487 -0.011095,0.065318 -0.016045,0.13161 -0.016043,0.197839 l 0,0 z m -0.064166,8.5982049 c -0.022894,0.629497 0.669757,1.122961 1.261147,0.923386 0.572803,-0.146189 0.874508,-0.866135 0.580945,-1.377892 -0.262789,-0.529013 -1.033404,-0.703313 -1.476703,-0.298437 -0.224079,0.184096 -0.372603,0.458926 -0.365389,0.752944 l 0,-1e-6 z" />
    <path
       inkscape:connector-curvature="0"
       style="font-size:62.4582634px;font-style:normal;font-variant:normal;font-weight:normal;font-stretch:normal;text-align:start;line-height:125%;writing-mode:lr-tb;text-anchor:start;fill:#ffffff;fill-opacity:1;stroke:none;font-family:Georgia"
       id="text2315"
       d="m 7.0863923,3.7008433 c 0.2165,2.114806 0.464489,4.215057 0.648787,6.3381467 0.185367,0 0.402782,0 0.588149,0 0.152869,-2.0388397 0.399439,-4.0653587 0.577306,-6.1016707 0.090667,-0.48217 -0.156894,-1.054656 -0.666053,-1.171802 -0.503128,-0.147099 -1.065245,0.217165 -1.132146,0.737487 -0.011095,0.065318 -0.016045,0.13161 -0.016043,0.197839 l 0,0 z m -0.064166,8.5982047 c -0.022894,0.629497 0.669757,1.122961 1.261147,0.923386 0.572803,-0.146189 0.874508,-0.866135 0.580945,-1.377892 -0.262789,-0.529013 -1.033404,-0.703313 -1.476703,-0.298437 -0.224079,0.184096 -0.372603,0.458926 -0.365389,0.752944 l 0,-10e-7 z" />
  </g>
</svg>

<?xml version="1.0" encoding="UTF-8" standalone="no"?>
<!-- Created with Inkscape (http://www.inkscape.org/) -->
<svg
   xmlns:svg="http://www.w3.org/2000/svg"
   xmlns="http://www.w3.org/2000/svg"
   xmlns:xlink="http://www.w3.org/1999/xlink"
   version="1.0"
   width="16"
   height="16"
   id="svg2478">
  <defs
     id="defs2480">
    <linearGradient
       id="linearGradient4873">
      <stop
         id="stop4875"
         style="stop-color:#ffffff;stop-opacity:1"
         offset="0" />
      <stop
         id="stop4877"
         style="stop-color:#ffffff;stop-opacity:0"
         offset="1" />
    </linearGradient>
    <linearGradient
       id="linearGradient2490-182-124">
      <stop
         id="stop2788"
         style="stop-color:#1f4b6a;stop-opacity:1"
         offset="0" />
      <stop
         id="stop2790"
         style="stop-color:#4083c2;stop-opacity:1"
         offset="1" />
    </linearGradient>
    <linearGradient
       id="linearGradient3242-187-536">
      <stop
         id="stop2778"
         style="stop-color:#8badea;stop-opacity:1"
         offset="0" />
      <stop
         id="stop2780"
         style="stop-color:#6396cd;stop-opacity:1"
         offset="0.26238" />
      <stop
         id="stop2782"
         style="stop-color:#3b7caf;stop-opacity:1"
         offset="0.66093999" />
      <stop
         id="stop2784"
         style="stop-color:#194c70;stop-opacity:1"
         offset="1" />
    </linearGradient>
    <linearGradient
       x1="63.397362"
       y1="-12.489107"
       x2="63.397362"
       y2="5.4675598"
       id="linearGradient2518"
       xlink:href="#linearGradient4873"
       gradientUnits="userSpaceOnUse"
       gradientTransform="matrix(0.7432394,0,0,0.7432224,-38.229789,10.609333)" />
    <radialGradient
       cx="23.895569"
       cy="3.9900031"
       r="20.397499"
       fx="23.895569"
       fy="3.9900031"
       id="radialGradient2521"
       xlink:href="#linearGradient3242-187-536"
       gradientUnits="userSpaceOnUse"
       gradientTransform="matrix(0,0.8796593,-1.1611346,0,12.632931,-21.08413)" />
    <linearGradient
       x1="18.379412"
       y1="44.980297"
       x2="18.379412"
       y2="3.0816143"
       id="linearGradient2523"
       xlink:href="#linearGradient2490-182-124"
       gradientUnits="userSpaceOnUse"
       gradientTransform="matrix(0.3685738,0,0,0.3685738,-0.84577,-0.8457701)" />
  </defs>
  <g
     id="layer1">
    <path
       d="M 8.0000011,0.50182793 C 3.862769,0.50182793 0.501827,3.8627671 0.501827,7.9999997 C 0.501827,12.137233 3.862769,15.498175 8.0000011,15.498172 C 12.137232,15.498172 15.498177,12.137233 15.498173,7.9999997 C 15.498173,3.8627671 12.137232,0.50182793 8.0000011,0.50182793 z"
       id="path2449"
       style="fill:url(#radialGradient2521);fill-opacity:1;stroke:url(#linearGradient2523);stroke-width:1.00365424;stroke-linecap:round;stroke-linejoin:round;stroke-miterlimit:4;stroke-dasharray:none;stroke-dashoffset:0;stroke-opacity:1" />
    <path
       d="M 14.500001,7.9997709 C 14.500001,11.589737 11.589636,14.5 8.0000818,14.5 C 4.4101984,14.5 1.5000001,11.589705 1.5000001,7.9997709 C 1.5000001,4.4099703 4.4101984,1.5000014 8.0000818,1.5000014 C 11.589636,1.5000014 14.500001,4.4099703 14.500001,7.9997709 L 14.500001,7.9997709 z"
       id="path2451"
       style="opacity:0.4;fill:none;fill-opacity:1;fill-rule:nonzero;stroke:url(#linearGradient2518);stroke-width:1;stroke-miterlimit:4;stroke-dasharray:none;stroke-opacity:1" />
    <path
       d="M 7.0863923,3.7008431 C 7.3028923,5.8156491 7.5508813,7.9159001 7.7351793,10.03899 C 7.9205463,10.03899 8.1379613,10.03899 8.3233283,10.03899 C 8.4761973,8.0001501 8.7227673,5.9736311 8.9006343,3.9373191 C 8.9913013,3.4551491 8.7437403,2.8826631 8.2345813,2.7655171 C 7.7314533,2.6184181 7.1693363,2.9826821 7.1024353,3.5030041 C 7.0913403,3.5683221 7.0863903,3.6346141 7.0863923,3.7008431 L 7.0863923,3.7008431 z M 7.0222263,12.299048 C 6.9993323,12.928545 7.6919833,13.422009 8.2833733,13.222434 C 8.8561763,13.076245 9.1578813,12.356299 8.8643183,11.844542 C 8.6015293,11.315529 7.8309143,11.141229 7.3876153,11.546105 C 7.1635363,11.730201 7.0150123,12.005031 7.0222263,12.299049 L 7.0222263,12.299048 z"
       id="text2315"
       style="font-size:62.4582634px;font-style:normal;font-variant:normal;font-weight:normal;font-stretch:normal;text-align:start;line-height:125%;writing-mode:lr-tb;text-anchor:start;fill:#ffffff;fill-opacity:1;stroke:none;stroke-width:0.5;stroke-linecap:round;stroke-linejoin:round;stroke-miterlimit:4;stroke-dasharray:none;stroke-opacity:1;font-family:Georgia" />
  </g>
</svg>
